X:1
T:The Golden Bells
T:The Golden Bells
T:William  James Kirkpatrick
T:William H. Ruddiman, 1879
T:Public Domain Courtesy of the Cyber Hymnal™
T:Public Domain Courtesy of the Cyber Hymnal™
T:Public Domain Courtesy of the Cyber Hymnal™
C:William  James Kirkpatrick
Z:Public Domain
Z:Courtesy of the Cyber Hymnal™
%%score ( 1 2 ) ( 3 4 )
L:1/8
Q:1/4=105
M:4/4
K:Bb
V:1 treble 
V:2 treble 
V:3 bass 
V:4 bass 
V:1
 [DF][CE][B,D][CE] [DF][DF][DB][DB] | [EA]2 [EG]2 [DF]4 | [CE][B,D][A,C][B,D] [CE]2 [EG]2 | %3
w: 1.~Wel- come to the mer- ry, mer- ry|Christ- mas time,|Glad- some with me- lo- dious|
w: 2.~Wel- come to the mer- ry, mer- ry|Christ- mas time,|Teem- ing with good- will to|
w: 3.~Hap- py be our greet- ings to the|Christ- mas time,|Bright- er than with Beth- lehem’s|
 G4 [DF]2 z2 | [DF][CE][B,D][CE] [DF][DF][Fd][Fd] | [Ec]2 [EG]2 (cB)[EA][EG] | %6
w: flow; Send-|* ing out the mu- sic of its|hopes sub- lime, * Charm- ing|
w: man, Sweet|* as with the o- dors of an|E- den clime, * Chief in|
w: star, O’er|* the world re- joic- ing sounds its|rich- est chime, * Now its|
 [DF]2 [FB]2 [FB]2 [EA]2 | [DB]6 z2 | (cB) (AG) F2 (GA) | [FB]2 [Fc]2 [Fd]4 | %10
w: all the earth be-|low.|Day * of * Heav’n’s im- *|part- ed peace,|
w: God’s re- deem- ing|plan.|Man’s * sal- * va- tion *|is thy cheer,|
w: splen- dors blaze a-|far;|See * the * dead come *|forth to life,|
 (ed) (cB) [FA]2 [DB]2 | [Fc][F=B][Fc][Fd] !fermata![Fe]4 | [Fd][Ec][DB][EA] [DB]2 F2 | %13
w: May * we * feel thy|joys di- vine in- crease;|Catch- ing still the beams of|
w: Thou * hast * ban- ished|sin’s en- slav- ing fear,|Scatt- er- ing the gloom be-|
w: And * the * reign of|love o’er- mas- ter strife;|Glo- ry in the high- est|
 [EG]2 [GB]2 [Ge]2 [Gd][Gc] | [Ff]2 [DB]2 [Fd]2 [Ec]2 | [DB]6 z2 ||"^Refrain" c2 F2 G2 F2 | %17
w: that clear morn When our|in- fant Lord was|born.|Gold- en bells, chime|
w: neath thy ray, From the|Sav- ior’s na- tal|day.||
w: be the song Un- to|God from ev- ery|tongue.||
 B2 F2 [Fd]4 | e2 G2 B2 e2 | d6 z2 | [Fd]4 [Fd]4 | [Fd]4 f4 | [Gf][Ge][Gd][Gc] [FB]2 [EA]2 | %23
w: on, chime on,|Chime with tune- ful|ring!|Ring! ring!|bring! bring!|Greet- ings to our Sav- ior|
w: ||||||
w: ||||||
 [DB]6 z2 |] %24
w: King!|
w: |
w: |
V:2
 x8 | x8 | x8 | E2 D^C x4 | x8 | x4 E2 x2 | x8 | x8 | F2 F2 F2 F2 | x8 | F2 F2 x4 | x8 | x6 F2 | %13
 x8 | x8 | x8 || (EE) (EE) (EE) (EE) | (DD) (DD) x4 | (GG) (GG) (GG) (GG) | (FFFF F2) x2 | x8 | %21
 x4 (F2 _A2) | x8 | x8 |] %24
V:3
 [B,,B,][B,,B,][B,,B,][B,,B,] [B,,B,][B,,B,][B,,B,][B,,B,] | [E,B,]2 [E,B,]2 [B,,B,]4 | %2
w: ~ ~ ~ ~ ~ ~ ~ ~|~ ~ ~|
 F,F,F,F, F,2 [F,A,]2 | [B,,B,]6 z2 | [B,,B,][B,,B,][B,,B,][B,,B,] [B,,B,][B,,B,][B,,B,][B,,B,] | %5
w: ~ ~ ~ ~ ~ ~|~|~ ~ ~ ~ ~ ~ ~ ~|
 [E,G,]2 [E,B,]2 [E,G,]2 [E,C][E,B,] | [F,B,]2 [F,D]2 [F,D]2 [F,C]2 | [B,,B,]6 z2 | %8
w: ~ ~ ~ ~ ~|~ ~ ~ ~|~|
 (ED) (CB,) [F,A,]2 (B,C) | [F,D]2 [F,A,]2 [B,,B,]4 | (CB,) (A,G,) F,2 [F,B,]2 | %11
w: ~ * ~ * ~ ~ *|~ ~ ~|~ * ~ * ~ ~|
 [F,A,][F,^G,][F,A,][F,B,] !fermata![F,C]4 | [B,,B,][B,,B,][B,,B,][F,C] [G,B,]2 [D,B,]2 | %13
w: ~ ~ ~ ~ ~|~ ~ ~ ~ ~ ~|
 [E,B,]2 [E,B,]2 [E,B,]2 [E,B,][E,B,] | [D,B,]2 [G,B,]2 [F,B,]2 [F,A,]2 | [B,,B,]6 z2 || %16
w: ~ ~ ~ ~ ~|~ ~ ~ ~|~|
 [F,A,][F,A,][F,A,][F,A,] [F,A,][F,A,][F,A,][F,A,] | [B,,B,][B,,B,][B,,B,][B,,B,] [B,,B,]4 | %18
w: Gold- en bells, chime on, chime on, Ye|gold- en bells, chime on;|
 [E,B,][E,B,][E,B,][E,B,] [E,B,][E,B,][E,B,][E,B,] | [B,,B,][B,,B,][B,,B,][B,,B,] [B,,B,]2 z2 | %20
w: Chime, ye gold- en bells, chime on, O|chime with tune- ful ring!|
 [F,A,C][F,A,C][F,A,C][F,A,C] [B,D][B,D][B,D][B,D] | %21
w: Mer- ry, mer- y bells are ring- ing,|
 [F,A,C][F,A,C][F,A,C][F,A,C] [B,D][B,D][B,D][B,D] | [E,B,][E,C][E,D][E,E] [F,D]2 [F,C]2 | %23
w: Hap- py hap- py voic- es bring- ing,||
 [B,,B,]6 z2 |] %24
w: |
V:4
 x8 | x8 | F,F,F,F, F,2 x2 | x8 | x8 | x8 | x8 | x8 | F,2 F,2 x F,2 x | x8 | F,2 F,2 F,2 x2 | x8 | %12
 x8 | x8 | x8 | x8 || x8 | x8 | x8 | x8 | x8 | x8 | x8 | x8 |] %24

